X: 8
T: Last Night's Fun
Z: chansherly212
S: https://thesession.org/tunes/63#setting46859
R: reel
M: 4/4
L: 1/8
K: Dmaj
B|:ADFD A2AB|ADFD EFGB|ADFD A2Bd|1 egfe dBBd:|2 egfe dBAB||
df~f2 af~f2|df~f2 egfe|df~f2 af~f2|egfe dBAB|
df~f2 af~f2|defd e2fg|a2bf afeg|fedc BcdB|

